!!!OTL: 165. Freylekhs
!!!Genre:	Freylekhs
!!!Mode:	Major
!!!Listening/dance:	dance
!!!:	*D:
!!!One_Mode:	no
**kern
*thru
*I"P1
*clefG2
*k[f#]
*G:
*M2/4
*>A
=1
!LO:TX:a:i:t=G-major
16gLL
(16f#
16g)
(16bJJ
16aLL)
(16g
16f#)
(16aJJ
=2
16gLL)
(16f#
16g)
(16bJJ
16aLL)
(16g
16f#)
(16aJJ
=3
8g)
4gg
8gg
=4
(16ddLL
16cc)
16b'
16a'JJ
(8btL
8gJ)
=5
16gLL
(16f#
16g)
(16bJJ
16aLL)
(16g
16f#)
(16aJJ
=6
16gLL)
(16f#
16g)
(16bJJ
16aLL)
(16g
16f#)
16aJJ
=7
8g
4gg
8gg
=8
(16ddLL
16cc)
16b'
16a'JJ
8g
8r
*>A
=9:|!|:
=1
!LO:TX:a:i:t=G-major
16gLL
(16f#
16g)
(16bJJ
16aLL)
(16g
16f#)
(16aJJ
=2
16gLL)
(16f#
16g)
(16bJJ
16aLL)
(16g
16f#)
(16aJJ
=3
8g)
4gg
8gg
=4
(16ddLL
16cc)
16b'
16a'JJ
(8btL
8gJ)
=5
16gLL
(16f#
16g)
(16bJJ
16aLL)
(16g
16f#)
(16aJJ
=6
16gLL)
(16f#
16g)
(16bJJ
16aLL)
(16g
16f#)
16aJJ
=7
8g
4gg
8gg
=8
(16ddLL
16cc)
16b'
16a'JJ
8g
8r
*>B
=9:|!|:
*k[f#c#]
!!!Begin-Modulation
*G:
!LO:TX:a:i:t=G-major
4gg
(8qff#/
8ggL)
16ddL
16ccJJ
=18
16bLL
16ccJ
[8ddJ
16ddLL]
16cc
16b
16aJJ
=19
8g
4gg
8gg
=20
16ddLL
16cc
16b
16aJJ
8btL
8gJ
=21
4gg
(8qff#/
8ggL)
16ddL
16ccJJ
=22
16bLL
16ccJ
[8ddJ
16ddLL]
16cc
16b
16aJJ
=23
8g
4gg
8gg
=24
(16ddLL
16cc)
16b'
16a'JJ
8g
8r
==:|!
*>C
8dd
=17:|!|:
*k[f#]
!!!End-Modulation
*G:
!LO:TX:a:i:t=G-major
4gg
(8qff#/
8ggL)
16ddL
16ccJJ
=18
16bLL
16ccJ
[8ddJ
16ddLL]
16cc
16b
16aJJ
=19
8g
4gg
8gg
=20
16ddLL
16cc
16b
16aJJ
8btL
8gJ
=21
4gg
(8qff#/
8ggL)
16ddL
16ccJJ
=22
16bLL
16ccJ
[8ddJ
16ddLL]
16cc
16b
16aJJ
=23
8g
4gg
8gg
=24
(16ddLL
16cc)
16b'
16a'JJ
8g
8r
==:|!
*-
